!!!OTL-incipit: ES WAR'N ZWEI KOENIGSKINDER
!!!ARE: Europa, Mitteleuropa, Deutschland
!!!SCT: Z0026
!!!TXL: @@DE
!!!YEM: Copyright 1995, estate of Helmut Schaffrath.
**kern	**text
*ICvox	*
*M4/4	*
*met(c)	*
*k[b-]	*
*d:	*
{8d	Es
8d	war'n
8d	ʒwei
=1	=1
4a	Kö-
4g	-nigs-
4a	-kin-
4f	-der,
=2	=2
4r	.
4r	.
8r}	.
{8a	die
8a	hatten
8a	ein-
=3	=3
(4b-/	-an-
4a)	.
4f	-der
4g	ſo
=4	=4
2f	lieb,
8r}	.
{8f	ſie
8f	konnten
8a	.
=5	=5
(8gL	bei-
8fJ	.
8gL)	-ſam-
8aJ	.
(8g	-men
8f)	.
(8e	nicht
8d)	.
=6	=6
4c	kom-
2c}	-men,
{4c	das
=7	=7
(8d	Waſ-
8e)	.
(8f	-ſer
8d)	war
(8a	viel
8g	.
8f	.
16eL	ʒu
16dJ)	.
=8	=8
4.d	tief.
4r}	.
==:|;;	==:|;;
!!!AGN: Sagen - Lied, Romanze, Tod
!!!ONB: ESAC (Essen Associative Code) Database: ZUCCAL
!!!AMT: simple quadruple
!!!AIN: vox
!!!EED: Helmut Schaffrath
!!!EEV: 1.0
!!!GTL: I. Ernste Romanzen und Sagen.
!!!URL-scan: https://www.digitale-sammlungen.de/de/view/bsb11160571?page=54
!!!ENC: Anna Maria Matuszewska
!!!EEV: 2025/01/23
*-	*-
